!!!!SEGMENT: pl-kk--kk-i-356--005_gabrieli-andrea--hodie-christus.krn
!!!cenid: 17xx:1948
!!!COM: Gabrieli, Andrea
!!!COM-rismid: pe30001185
!!!CDT: 1532/1533-1585/08/30
!!!CNT: Italian
!!!OTL: Hodie Christus
!!!PDT:
!!!AGN: Sacred
!!!SMS-siglum: PL-Kk
!!!SMS-shelfmark: Kk.I.356
!!!SMS-shelfwork: 005 W
!!!SMS-variant:
!!!SMS-altvar:
!!!NIFC-rismid: 1001141858
!!!URL-scan: http://repozytorium.nifc.pl/skany/pl-kk-nut--i-356
!!!ONB-nifc: UWAGA: tylko partia basu.
!!!key:
**kern	**text
*Iempty	*
*I"Baſso.	*
*I'B	*
*clefF4	*
*k[b-]	*
*B-:	*
*M2/1	*
*met(C|)	*
=1-	=1-
!LO:TX:t=P:problem:znaki w jednej linii BB- B-	!
00r	.
=2-	=2-
.	.
=3-	=3-
00r	.
=4-	=4-
.	.
=5-	=5-
1.F\	Ho-
2C/	-di-
=6-	=6-
2C/	-e
*2\right	*
2.F\	Chri-
4E\	.
4D/	.
4C/	.
=7-	=7-
2BB-/	.
!LO:TX:t=P:problem:kreska pseudotaktowa	!
2GG/	-stus
2.E-X\	na-
8D/L	.
8C/J	.
=8-	=8-
2BB-/	.
2FF/	.
1C/	-tus
=9-	=9-
!LO:TX:t=P:problem:kreska pseudotaktowa	!
0.F\	est
=10-	=10-
2r	.
1F\	ho-
=11-	=11-
2D\	-di-
2D\	-e
!LO:TX:t=P:problem:kreska pseudotaktowa	!
2F\	Sal-
!!LO:LB:g=original
=12-	=12-
4BB-/	-va-
4C/	.
4D/	.
4Eny/	.
1F\	.
=13-	=13-
1.BB-/	-tor
2FF/	ap-
=14-	=14-
1AA/	-pa-
1GG/	-ru-
=15-	=15-
1C/,<	-it,
1FF/	ap-
=16-	=16-
1FF/	-pa-
1C/	-ru-
=17-	=17-
!LO:TX:t=P:problem:kreska pseudotaktowa	!
1F\	-it
0r	.
=18-	=18-
.	.
1r	.
=19-	=19-
2r	.
1A\	ho-
2D\	-di-
=20-	=20-
2F\	-e
2F\	in
2FF/	ter-
2FF/	-ra
=21-	=21-
2GG/	ca-
!LO:TX:t=P:problem:kreska pseudotaktowa	!
2AA/	-nunt
!!LO:LB:g=original
2BB-/	an-
2FF/	-ge-
=22-	=22-
1BB-/	-li
00r	.
=23-	=23-
.	.
=24-	=24-
.	.
00r	.
=25-	=25-
.	.
=26-	=26-
.	.
1r	.
=27-	=27-
1F\	in
2FF/	ter-
2FF/	-ra
=28-	=28-
2GG/	ca-
2AA/	-nunt
2BB-/	an-
2FF/	-ge-
=29-	=29-
!LO:TX:t=P:problem:kreska pseudotaktowa	!
1C/	-li
4r	.
4FF/	lae-
!LO:TX:t=P:problem:kreska pseudotaktowa	!
2C/	-tan-
=30-	=30-
2BB-/	-t(ur)
4r	.
!LO:TX:t=P:problem:kreska pseudotaktowa	!
4FF/	lae-
2C/	-tan-
4BB-/	-tur
4BB-/	ar-
=31-	=31-
8FF/	-chan-
8GG/	.
8AA/	.
8BB-/	.
!LO:TX:t=P:problem:kreska pseudotaktowa	!
2C/	.
!!LO:LB:g=original
2GG/	-ge-
2C/	-li
=32-	=32-
00r	.
=33-	=33-
.	.
=34-	=34-
1r	.
2r	.
1FF/	ho-
=35-	=35-
2C/	-di-
2FF/	-e
2F\	e-
=36-	=36-
2.D/	-xul-
4C/	-tant
1BB-/	ju-
=37-	=37-
!LO:TX:t=P:problem:kreska pseudotaktowa	!
1AA/	-sti
2r	.
2GG/	di-
=38-	=38-
1D\	-cen-
2GG/	-tes
2GG/	di-
=39-	=39-
1C/	-cen-
!LO:TX:t=P:problem:kreska pseudotaktowa	!
1GG/	-tes
=40-	=40-
2r	.
2FF/	di-
1C/	-cen-
=41-	=41-
0FF/	-tes.
=42-	=42-
00r	.
=43-	=43-
.	.
!LO:TX:t=P:problem:kreska pseudotaktowa	!
!!LO:LB:g=original
=44-	=44-
2r	.
2.FF/	Glo-
4FF/	-ri-
2FF/	-a
=45-	=45-
2C/	in
2FF/	ex-
2BB-/	-cel-
2BB-/	-sis
=46-	=46-
1GG/	De-
!LO:TX:t=P:problem:kreska pseudotaktowa	!
0FF/	-o
=47-	=47-
*	*ij
2.C/	Glo-
4C/	-ri-
=48-	=48-
1GG/	-a
2D/	in
2D/	ex-
=49-	=49-
2C/	-cel-
2C/	-sis
1AA/	De-
=50-	=50-
!LO:TX:t=P:problem:kreska pseudotaktowa	!
1GG/	-o
*	*Xij
2r	.
2.D/	Glo-
=51-	=51-
4D/	-ri-
2D/	-a
2BB-/	in
2GG/	ex-
!!LO:LB:g=original
=52-	=52-
2AA/	-cel-
2AA/	-sis
1C/	De-
!LO:TX:t=P:problem:kreska pseudotaktowa	!
=53-	=53-
*M3/1	*
0FF/	-o
1r	.
=54-	=54-
!LO:TX:t=P:problem:kreska pseudotaktowa	!
1F\	al-
1D\	-le-
!LO:TX:t=P:problem:kreska pseudotaktowa	!
1BB-/	-lu-
=55-	=55-
1F\	-ia
1r	.
!LO:TX:t=P:problem:kreska pseudotaktowa	!
1r	.
=56-	=56-
0r	.
*	*ij
1C/	al-
=57-	=57-
1AA/	-le-
!LO:TX:t=P:problem:kreska pseudotaktowa	!
1FF/	-lu-
0C/	-ia
*	*Xij
=58-	=58-
.	.
!LO:TX:t=P:problem:kreska pseudotaktowa	!
1r	.
0r	.
=59-	=59-
.	.
1C/	al-
1AA/	-le-
=60-	=60-
!LO:TX:t=P:problem:kreska pseudotaktowa	!
1FF/	-lu
!!LO:LB:g=original
1C/	.
2F\	al-
2G\	-le-
=61-	=61-
!LO:TX:t=P:problem:kreska pseudotaktowa	!
1C/	-lu-
0FF/	-ia
=62-	=62-
!LO:TX:t=P:problem:kreska pseudotaktowa	!
1r	.
*	*ij
1F\	al-
1D\	-le-
=63-	=63-
!LO:TX:t=P:problem:kreska pseudotaktowa	!
1BB-/	-lu-
1F\	-ia
1r	.
=64-	=64-
!LO:TX:t=P:problem:kreska pseudotaktowa	!
1r	.
0r	.
=65-	=65-
1C/	al-
1AA/	-le-
!LO:TX:t=P:problem:kreska pseudotaktowa	!
1FF/	-lu-
=66-	=66-
0C/	-ia
!LO:TX:t=P:problem:kreska pseudotaktowa	!
1r	.
=67-	=67-
0r	.
1C/	al-
=68-	=68-
1AA/	-le-
!LO:TX:t=P:problem:kreska pseudotaktowa	!
1FF/	-lu-
1C/	-ia
=69-	=69-
2E\	al-
2F\	-le-
!LO:TX:t=P:problem:kreska pseudotaktowa	!
1C/	-lu-
!!LO:PB:g=original
0FF/	-ia
=70-	=70-
.	.
1F\	al
1D\	le-
!LO:TX:a:t=2	!
=71-	=71-
!LO:TX:t=P:problem:kreska pseudotaktowa	!
0BB-/	-lu-
=72-	=72-
00FF;/	-ia
==	==
*-	*-
!!!EED: Leszek Kubiak
!!!EST: 2021-02-23
!!!AIN: 1 empty
!!!ENC: Marcin Jachim
!!!END: 2021-02-06
